assets/svg/goods-collect.svg

<?xml version="1.0" encoding="UTF-8"?>
<svg width="1000px" height="1000px" viewBox="0 0 1000 1000" version="1.1" xmlns="http://www.w3.org/2000/svg" xmlns:xlink="http://www.w3.org/1999/xlink">
    <!-- Generator: sketchtool 52.4 (67378) - http://www.bohemiancoding.com/sketch -->
    <title>goods-collect</title>
    <desc>Created with sketchtool.</desc>
    <g id="新版图标" stroke="none" stroke-width="1" fill="none" fill-rule="evenodd">
        <g id="goods-collect" fill="#323233">
            <g id="圆角-商品收藏-面">
                <path d="M646.143379,194.444444 L764.685549,194.444444 C765.213612,194.444444 765.650662,194.855031 765.683601,195.382066 L788.287632,557.04655 C774.939081,559.08212 762.042803,563.166651 749.98896,569.082213 C732.093985,560.303294 712.357934,555.555556 692.045954,555.555556 C615.975052,555.555556 555.555556,619.690041 555.555556,697.049194 C555.555556,699.346821 555.61318,701.124077 555.772997,703.177279 C555.883121,718.789553 559.326173,734.546601 565.382433,749.801602 C565.61921,750.438568 565.61921,750.438568 566.054407,751.544589 C570.384531,762.172195 575.855371,772.483321 582.450187,782.833351 C593.142592,799.614213 606.710876,816.418325 622.677008,833.333333 L167.731118,833.333333 C167.178833,833.333333 166.731118,832.885618 166.731118,832.333333 C166.731118,832.312525 166.731767,832.291722 166.733065,832.270955 L206.538621,195.382066 C206.571561,194.855031 207.00861,194.444444 207.536673,194.444444 L308.717732,194.444444 C324.10164,115.301496 393.788892,55.5555556 477.430556,55.5555556 C561.072219,55.5555556 630.759471,115.301496 646.143379,194.444444 Z M589.006578,194.444444 C574.786339,146.268992 530.214229,111.111111 477.430556,111.111111 C424.646882,111.111111 380.074772,146.268992 365.854533,194.444444 L589.006578,194.444444 Z M883.786255,726.767981 C882.586378,730.237687 881.058114,733.820536 879.113051,737.654813 C879.028849,737.763765 878.873076,738.023574 878.645731,738.434239 C878.367865,738.937095 878.140519,739.439951 877.900544,739.942807 C877.066946,741.539375 876.157565,743.387371 874.932428,745.285652 C842.763101,801.731233 761.802998,861.357378 758.342301,864.123086 C755.803614,866.13451 752.797607,867.152793 749.76634,867.152793 C746.747703,867.152793 743.792217,866.197367 741.26616,864.211086 C737.22447,860.992807 642.270015,791.359829 617.603076,730.828543 C617.476773,730.514258 617.3631,730.17483 617.224167,729.822831 C613.32141,719.991997 611.325826,710.789733 611.325826,702.40461 C611.325826,701.989754 611.351086,701.625183 611.388977,701.222899 C611.237414,700.078901 611.111111,698.645762 611.111111,697.049194 C611.111111,649.642449 647.4358,611.111111 692.045954,611.111111 C714.047904,611.111111 734.887868,620.853945 750.018945,637.43562 C765.074241,620.853945 785.914205,611.111111 807.954046,611.111111 C852.551569,611.111111 888.888889,649.667592 888.888889,697.049194 C888.888889,698.620619 888.775216,699.940616 888.724695,700.921185 C888.749956,701.336041 888.775216,701.86404 888.775216,702.429753 C888.775216,709.872021 887.120649,717.817145 883.786255,726.767981 Z" id="Combined-Shape"></path>
            </g>
        </g>
    </g>
</svg>

<svg width="1000" height="1000" xmlns="http://www.w3.org/2000/svg"><path d="M646.143 194.444h118.543a1 1 0 0 1 .998.938l22.604 361.665c-13.349 2.035-26.245 6.12-38.299 12.035-17.895-8.779-37.631-13.526-57.943-13.526-76.07 0-136.49 64.134-136.49 141.493 0 2.298.057 4.075.217 6.128.11 15.613 3.553 31.37 9.61 46.625.236.637.236.637.671 1.743 4.33 10.627 9.801 20.938 16.396 31.288 10.693 16.781 24.26 33.585 40.227 50.5H167.731a1 1 0 0 1-.998-1.062l39.806-636.889a1 1 0 0 1 .998-.938h101.18c15.385-79.143 85.072-138.888 168.714-138.888 83.641 0 153.328 59.745 168.712 138.888zm-57.136 0c-14.22-48.175-58.793-83.333-111.576-83.333-52.784 0-97.356 35.158-111.576 83.333h223.152zm294.78 532.324c-1.2 3.47-2.729 7.053-4.674 10.887-.084.109-.24.369-.467.78-.278.502-.505 1.005-.745 1.508-.834 1.596-1.743 3.444-2.969 5.343-32.169 56.445-113.129 116.071-116.59 118.837-2.538 2.012-5.544 3.03-8.576 3.03-3.018 0-5.974-.956-8.5-2.942-4.042-3.218-98.996-72.851-123.663-133.382-.126-.315-.24-.654-.379-1.006-3.903-9.831-5.898-19.033-5.898-27.418 0-.415.025-.78.063-1.182a32.004 32.004 0 0 1-.278-4.174c0-47.407 36.325-85.938 80.935-85.938 22.002 0 42.842 9.743 57.973 26.325 15.055-16.582 35.895-26.325 57.935-26.325 44.598 0 80.935 38.557 80.935 85.938 0 1.572-.114 2.892-.164 3.872.025.415.05.943.05 1.509 0 7.442-1.654 15.387-4.989 24.338z" fill="#323233" fill-rule="evenodd"/></svg>
